src/assets/images/NT.svg

<svg width="57" height="27" viewBox="0 0 57 27" fill="none" xmlns="http://www.w3.org/2000/svg">
<path d="M23.948 1.232C23.156 1.352 22.568 1.556 22.184 1.844C21.824 2.132 21.572 2.588 21.428 3.212C21.308 3.836 21.248 4.76 21.248 5.984V26.072L20.384 26.036L19.412 26.072L3.788 6.272V20.096C3.788 21.512 3.86 22.556 4.004 23.228C4.148 23.876 4.46 24.356 4.94 24.668C5.42 24.956 6.2 25.16 7.28 25.28V26C6.344 25.928 5.048 25.892 3.392 25.892C2.072 25.892 1.028 25.928 0.26 26V25.28C1.052 25.16 1.628 24.956 1.988 24.668C2.372 24.38 2.624 23.924 2.744 23.3C2.888 22.676 2.96 21.752 2.96 20.528V4.328C2.96 3.416 2.888 2.756 2.744 2.348C2.624 1.94 2.372 1.664 1.988 1.52C1.628 1.376 1.052 1.28 0.26 1.232V0.512C1.028 0.583999 2.072 0.619998 3.392 0.619998C4.592 0.619998 5.624 0.583999 6.488 0.512L20.42 17.684V6.416C20.42 5 20.348 3.968 20.204 3.32C20.06 2.648 19.748 2.168 19.268 1.88C18.788 1.568 18.008 1.352 16.928 1.232V0.512C17.864 0.583999 19.16 0.619998 20.816 0.619998C22.16 0.619998 23.204 0.583999 23.948 0.512V1.232ZM48.0925 0.512C47.9245 2.792 47.8405 4.832 47.8405 6.632C47.8405 7.76 47.8765 8.672 47.9485 9.368H47.1205C46.5445 6.416 45.7525 4.34 44.7445 3.14C43.7605 1.94 42.4045 1.34 40.6765 1.34H39.8485V21.896C39.8485 22.904 39.9445 23.636 40.1365 24.092C40.3525 24.548 40.7125 24.86 41.2165 25.028C41.7445 25.172 42.5725 25.256 43.7005 25.28V26C40.6765 25.928 38.3965 25.892 36.8605 25.892C35.3485 25.892 33.1525 25.928 30.2725 26V25.28C31.4005 25.256 32.2165 25.172 32.7205 25.028C33.2485 24.86 33.6085 24.548 33.8005 24.092C34.0165 23.636 34.1245 22.904 34.1245 21.896V1.34H33.3325C32.1805 1.34 31.1965 1.592 30.3805 2.096C29.5885 2.6 28.9045 3.44 28.3285 4.616C27.7525 5.768 27.2605 7.352 26.8525 9.368H26.0245C26.0965 8.672 26.1325 7.76 26.1325 6.632C26.1325 4.832 26.0485 2.792 25.8805 0.512C28.0645 0.583999 31.7725 0.619998 37.0045 0.619998C42.2365 0.619998 45.9325 0.583999 48.0925 0.512Z" fill="white"/>
<path d="M53.8873 20.96C54.8233 20.96 55.5673 21.212 56.1193 21.716C56.6713 22.196 56.9473 22.868 56.9473 23.732C56.9473 24.596 56.6713 25.28 56.1193 25.784C55.5673 26.264 54.8233 26.504 53.8873 26.504C52.9513 26.504 52.2073 26.264 51.6553 25.784C51.1033 25.28 50.8273 24.596 50.8273 23.732C50.8273 22.868 51.1033 22.196 51.6553 21.716C52.2073 21.212 52.9513 20.96 53.8873 20.96Z" fill="#41EAD4"/>
</svg>

<svg xmlns="http://www.w3.org/2000/svg" width="57" height="27" fill="none"  xmlns:v="https://vecta.io/nano"><path d="M23.948 1.232c-.792.12-1.38.324-1.764.612-.36.288-.612.744-.756 1.368-.12.624-.18 1.548-.18 2.772v20.088l-.864-.036-.972.036-15.624-19.8v13.824c0 1.416.072 2.46.216 3.132.144.648.456 1.128.936 1.44.48.288 1.26.492 2.34.612V26l-3.888-.108L.26 26v-.72c.792-.12 1.368-.324 1.728-.612.384-.288.636-.744.756-1.368.144-.624.216-1.548.216-2.772v-16.2c0-.912-.072-1.572-.216-1.98-.12-.408-.372-.684-.756-.828-.36-.144-.936-.24-1.728-.288v-.72C1.028.584 2.072.62 3.392.62L6.488.512 20.42 17.684V6.416c0-1.416-.072-2.448-.216-3.096-.144-.672-.456-1.152-.936-1.44-.48-.312-1.26-.528-2.34-.648v-.72l3.888.108 3.132-.108v.72zm24.145-.72l-.252 6.12.108 2.736h-.828c-.576-2.952-1.368-5.028-2.376-6.228-.984-1.2-2.34-1.8-4.068-1.8h-.828v20.556c0 1.008.096 1.74.288 2.196a1.75 1.75 0 0 0 1.08.936c.528.144 1.356.228 2.484.252V26l-6.84-.108-6.588.108v-.72c1.128-.024 1.944-.108 2.448-.252.528-.168.888-.48 1.08-.936.216-.456.324-1.188.324-2.196V1.34h-.792c-1.152 0-2.136.252-2.952.756-.792.504-1.476 1.344-2.052 2.52-.576 1.152-1.068 2.736-1.476 4.752h-.828c.072-.696.108-1.608.108-2.736l-.252-6.12c2.184.072 5.892.108 11.124.108L48.093.512z" fill="#fff"/><path d="M53.887 20.96c.936 0 1.68.252 2.232.756.552.48.828 1.152.828 2.016s-.276 1.548-.828 2.052c-.552.48-1.296.72-2.232.72s-1.68-.24-2.232-.72c-.552-.504-.828-1.188-.828-2.052s.276-1.536.828-2.016c.552-.504 1.296-.756 2.232-.756z" fill="#41ead4"/></svg>
